deepin/status/network-mobile-2g-offline-symbolic.svg

<?xml version="1.0" encoding="UTF-8" standalone="no"?>
<svg width="16px" height="16px" viewBox="0 0 16 16" version="1.1" xmlns="http://www.w3.org/2000/svg" xmlns:xlink="http://www.w3.org/1999/xlink">
    <!-- Generator: Sketch 39.1 (31720) - http://www.bohemiancoding.com/sketch -->
    <title>network-mobile-2g-off</title>
    <desc>Created with Sketch.</desc>
    <defs></defs>
    <g id="Page-1" stroke="none" stroke-width="1" fill="none" fill-rule="evenodd">
        <g id="network-mobile-2g-off">
            <g id="Group-20">
                <polygon id="Fill-356" points="0 16 16 16 16 0 0 0"></polygon>
                <path d="M14.499,7.9844 C14.497,7.9844 14.496,7.9854 14.494,7.9854 L11.499,7.9854 C11.223,7.9854 10.999,8.2094 10.999,8.4854 C10.999,8.7614 11.223,8.9854 11.499,8.9854 L13.999,8.9854 L13.999,10.6014 C13.999,11.2374 13.751,11.8364 13.301,12.2874 C12.851,12.7374 12.252,12.9854 11.615,12.9854 L11.383,12.9854 C10.747,12.9854 10.148,12.7374 9.697,12.2874 C9.247,11.8364 8.999,11.2374 8.999,10.6014 L8.999,6.3694 C8.999,5.7324 9.247,5.1334 9.697,4.6824 C10.147,4.2334 10.746,3.9854 11.383,3.9854 L11.615,3.9854 C12.252,3.9854 12.851,4.2334 13.301,4.6824 C13.751,5.1334 13.999,5.7324 13.999,6.3694 C13.999,6.6454 14.223,6.8694 14.499,6.8694 C14.775,6.8694 14.999,6.6454 14.999,6.3694 C14.999,5.4654 14.647,4.6154 14.008,3.9754 C13.369,3.3374 12.52,2.9854 11.615,2.9854 L11.383,2.9854 C10.479,2.9854 9.629,3.3374 8.99,3.9754 C8.351,4.6154 7.999,5.4654 7.999,6.3694 L7.999,10.6014 C7.999,11.5054 8.351,12.3544 8.99,12.9944 C9.63,13.6334 10.479,13.9854 11.383,13.9854 L11.615,13.9854 C12.515,13.9854 13.361,13.6354 13.999,13.0014 L13.999,13.4854 C13.999,13.7614 14.223,13.9854 14.499,13.9854 C14.775,13.9854 14.999,13.7614 14.999,13.4854 L14.999,10.6014 L14.999,8.4854 L14.999,8.4844 C14.999,8.2084 14.775,7.9844 14.499,7.9844" id="Fill-359" fill="#FFFFFF" opacity="0.3"></path>
                <path d="M3.9692,2.9854 C2.3312,2.9854 0.9992,4.3174 0.9992,5.9554 C0.9992,6.2314 1.2222,6.4554 1.4992,6.4554 C1.7752,6.4554 1.9992,6.2314 1.9992,5.9554 C1.9992,4.8694 2.8832,3.9854 4.0292,3.9854 C5.1152,3.9854 5.9992,4.8694 5.9992,5.9554 L5.9992,6.0144 C5.9992,7.6714 5.0432,8.2824 3.8332,9.0554 C2.4912,9.9144 0.9712,10.8854 0.9712,13.4854 C0.9712,13.7614 1.1952,13.9854 1.4712,13.9854 L6.4792,13.9854 C6.7552,13.9854 6.9792,13.7614 6.9792,13.4854 C6.9792,13.2094 6.7552,12.9854 6.4792,12.9854 L1.9952,12.9854 C2.1642,11.3104 3.1942,10.6514 4.3722,9.8984 C5.6032,9.1114 6.9992,8.2174 6.9992,6.0144 C6.9992,6.0044 6.9932,5.9954 6.9932,5.9854 C6.9932,5.9754 6.9992,5.9654 6.9992,5.9554 C6.9992,4.3174 5.6672,2.9854 3.9692,2.9854" id="Fill-360" fill="#FFFFFF" opacity="0.3"></path>
            </g>
        </g>
    </g>
</svg>

<?xml version="1.0" encoding="iso-8859-1"?>
<!-- Generator: Adobe Illustrator 18.0.0, SVG Export Plug-In . SVG Version: 6.00 Build 0)  -->
<!DOCTYPE svg PUBLIC "-//W3C//DTD SVG 1.1//EN" "http://www.w3.org/Graphics/SVG/1.1/DTD/svg11.dtd">
<svg version="1.1" id="&#x56FE;&#x5C42;_1" xmlns="http://www.w3.org/2000/svg" xmlns:xlink="http://www.w3.org/1999/xlink" x="0px"
	 y="0px" viewBox="0 0 16 16" style="enable-background:new 0 0 16 16;" xml:space="preserve">
<path style="opacity:0.3;fill:#FFFFFF;" d="M14.499,7.996c-0.002,0-0.003,0.001-0.005,0.001h-2.995c-0.276,0-0.5,0.224-0.5,0.5
	s0.224,0.5,0.5,0.5h2.5v1.616c0,0.636-0.248,1.234-0.698,1.686c-0.45,0.45-1.049,0.698-1.686,0.698h-0.232
	c-0.636,0-1.235-0.248-1.686-0.698c-0.45-0.451-0.698-1.05-0.698-1.686V6.381c0-0.637,0.248-1.235,0.698-1.687
	c0.45-0.449,1.049-0.697,1.686-0.697h0.232c0.637,0,1.236,0.248,1.686,0.697c0.45,0.451,0.698,1.05,0.698,1.687
	c0,0.276,0.224,0.5,0.5,0.5s0.5-0.224,0.5-0.5c0-0.903-0.352-1.754-0.991-2.394c-0.639-0.639-1.488-0.99-2.393-0.99h-0.232
	c-0.904,0-1.753,0.352-2.393,0.99c-0.639,0.64-0.991,1.49-0.991,2.394v4.232c0,0.903,0.352,1.753,0.991,2.393
	c0.64,0.64,1.489,0.991,2.393,0.991h0.232c0.9,0,1.746-0.35,2.384-0.984v0.484c0,0.276,0.224,0.5,0.5,0.5s0.5-0.224,0.5-0.5v-2.884
	V8.497V8.496C14.999,8.22,14.775,7.996,14.499,7.996z"/>
<path style="opacity:0.3;fill:#FFFFFF;" d="M3.969,2.997c-1.638,0-2.97,1.332-2.97,2.97c0,0.276,0.224,0.5,0.5,0.5
	s0.5-0.224,0.5-0.5c0-1.086,0.884-1.97,2.03-1.97c1.086,0,1.97,0.884,1.97,1.97v0.06c0,1.656-0.956,2.268-2.166,3.041
	c-1.341,0.858-2.861,1.83-2.861,4.43c0,0.276,0.224,0.5,0.5,0.5h5.007c0.276,0,0.5-0.224,0.5-0.5s-0.224-0.5-0.5-0.5H1.996
	c0.168-1.675,1.199-2.334,2.376-3.087c1.231-0.787,2.627-1.681,2.627-3.884c0-0.01-0.005-0.019-0.006-0.029
	c0.001-0.01,0.006-0.02,0.006-0.03C6.999,4.329,5.667,2.997,3.969,2.997z"/>
</svg>
